X:1
T:James Gibb editions
T:Lord, dismiss us with thy blessing - Barnby
%%score [ ( 1 2 ) ( 3 4 ) ]
L:1/8
Q:1/4=90
M:4/4
K:F
V:1 treble nm="Midi_74"
V:2 treble 
V:3 bass nm="Midi_74"
V:4 bass 
V:1
"^Eton College (87. 87. 47)""^Henry James Buckoll\n(1803-71)""^Lord, dismiss us with thy blessing""^Joseph Barnby\n(1838-96)" A2 G2 G2 F2 | %1
 B2 A2 A2 G2 || c2 B2 A2 G2 | F2 G2 E4 || B2 B2 B2 A2 | A2 d2 c2 =B2 ||[M:4/4] c2 e2 e2 d2 | %7
 c2 =B2 c4 || f2 e2 d2 c2 | B2 A2 G2 d2 | d4 (G2 A2) | F8 || F4 F4 |] %13
V:2
 C2 D2 C2 C2 | B,2 D2 C2 B,2 || C2 E2 F2 C2 | C2 =B,2 C4 || D2 D2 ^C2 C2 | D2 F2 E2 D2 || %6
[M:4/4] G2 E2 A2 A2 | G2 G2 G4 || F2 A2 A2 F2 | F2 D2 D2 D2 | E4 E4 | F8 || D4 C4 |] %13
V:3
 C2 B,2 B,2 A,2 | F,2 ^F,2 F,2 G,2 || G,2 C2 C2 G,2 | A,2 G,2 G,4 || G,2 G,2 G,2 A,2 | %5
 A,2 A,2 G,2 G,2 || %6
[M:4/4]"^1. Lord, dismiss us with Thy blessing,\nThanks for mercies past receive;\nPardon all, their faults confessing;\nTime that’s lost may all retrieve;\nMay Thy children\nNe’er again Thy Spirit grieve.\n\n2. Bless Thou all our days of leisure;\nHelp us selfish lures to flee;\nSanctify our every pleasure;\nPure and blameless may it be;\nMay our gladness\nDraw us evermore to Thee." G,2 C2 C2 F2 | %7
 E2 D2 E4 || C2 ^C2 D2 A,2 | %9
"^3. By Thy kindly influence cherish\nAll the good we here have gained;\nMay all taint of evil perish\nBy Thy mightier power restrained;\nSeek we ever\nKnowledge pure and love unfeigned.\n\n4. Let Thy father-hand be shielding\nAll who here shall meet no more;\nMay their seed-time past be yielding\nYear by year a richer store;\nThose returning,\nMake more faithful than before." B,2 ^F,2 G,2 B,2 | %10
 B,4 B,4 | A,8 || B,4 A,4 |] %13
V:4
 F,2 F,2 E,2 F,2 | D,2 D,2 D,2 G,2 || E,2 C,2 F,2 E,2 | D,2 G,,2 C,4 || G,2 F,2 E,2 A,2 | %5
 F,2 D,2 G,2 F,2 ||[M:4/4] E,2 C,2 F,2- D,2 | G,2 G,2 (C2- !courtesy!_B,2) || A,2 G,2 F,2 _E,2 | %9
 D,2 C,2 B,,2 G,,2 | C,4 C,4 | F,8 || B,,4 F,4 |] %13

